packages/bezier-icons/icons/image-failed.svg

<svg width="24" height="24" viewBox="0 0 24 24" fill="none" xmlns="http://www.w3.org/2000/svg">
<path fill-rule="evenodd" clip-rule="evenodd" d="M18.986 18.9991H7.10898L8.10898 17.9991H17.986V11.9991L15.403 10.7061L18.986 7.12213V18.9991ZM20.825 2.4541L20.13 3.1501C20.1294 3.14953 20.1292 3.14928 20.1289 3.14918L20.128 3.1491L18.278 4.9991H18.28L16.572 6.7071L12.57 10.7101L12.565 10.7121L5.98598 17.2911V17.2941L4.98598 18.2931V18.2911L3.13598 20.1411C3.13598 20.1421 3.13698 20.1431 3.13698 20.1431L2.44098 20.8391L3.85498 22.2531L5.10898 20.9991H19.486C20.313 20.9991 20.986 20.3261 20.986 19.4991V5.1221L22.24 3.8681L20.825 2.4541ZM7.98598 9.99908C9.08998 9.99908 9.98598 9.10308 9.98598 7.99908C9.98598 6.89508 9.08998 5.99908 7.98598 5.99908C6.88198 5.99908 5.98598 6.89508 5.98598 7.99908C5.98598 9.10308 6.88198 9.99908 7.98598 9.99908ZM16.864 4.99908H4.98598V16.8771L2.98598 18.8771V4.49908C2.98598 3.67208 3.65898 2.99908 4.48598 2.99908H18.864L16.864 4.99908Z" fill="#313234"/>
</svg>

<svg xmlns="http://www.w3.org/2000/svg" width="24" height="24" fill="none" viewBox="0 0 24 24"><path fill="#313234" fill-rule="evenodd" d="M18.986 19H7.109l1-1h9.877v-6l-2.583-1.294 3.583-3.584zm1.839-16.546-.695.696h-.002L18.278 5h.002l-1.708 1.707-4.002 4.003-.005.002-6.579 6.58v.002l-1 1v-.003l-1.85 1.85.001.002-.696.696 1.414 1.414L5.109 21h14.377c.827 0 1.5-.673 1.5-1.5V5.122l1.254-1.254zM7.986 10a2 2 0 1 0-.001-4.001 2 2 0 0 0 .001 4.001m8.878-5H4.986v11.878l-2 2V4.5c0-.827.673-1.5 1.5-1.5h14.378z" clip-rule="evenodd"/></svg>
